X:479
T: Es war einmal eine Mllerin (5-75), S. 121
N: P0749
O: Lothringen
S: MERKELBACH-PINCK, Angelika: Verklingende Weisen, Bd 5, Kassel 1962]
R: ???]
M: 4/4
L: 1/8
K: D
A,2 | D3EF2GG | A3BA2
A2 | G3FG2A2 | F4z2
DF | A2A2A2A2 | A2F2B2
A2 | G2E2G2E2 | G3BA2
G2 | F3EF2E2 | A2d2B2
B2 | A3FA2A2 | F4z2

